share/icons/Flat-Remix-Blue-Dark/mimetypes/scalable/gdform.svg

<svg xmlns="http://www.w3.org/2000/svg" xmlns:xlink="http://www.w3.org/1999/xlink" width="36pt" height="36pt" version="1.1" viewBox="0 0 36 36"> <defs> <clipPath id="clip1"> <path d="M 20 2 L 31 2 L 31 13 L 20 13 Z M 20 2"/> </clipPath> <clipPath id="clip2"> <path d="M 20.515625 2.625 L 30.328125 12.4375 L 22.023438 12.4375 C 21.292969 12.4375 20.515625 11.660156 20.515625 10.929688 Z M 20.515625 2.625"/> </clipPath> <image id="image6" width="36" height="36" xlink:href="data:image/png;base64,iVBORw0KGgoAAAANSUhEUgAAACQAAAAkCAYAAADhAJiYAAAABmJLR0QA/wD/AP+gvaeTAAAAmklEQVRYhe3T0QqCQBBG4aOtYEoUvf9Lildltl00C4tkbBeTIP+BAUEYP1YW1Pcqh53B9kbgaVPcwQF0tAmGSrMZ6AKcDQXw+AUVHEAtcAUaewYYgYmC3+cBCkAPnDJQMcoDVNnebgEqQnmAclTz4d0I3P4JStc9AjXvk4qLWQV53LLeEOl05gw4A3dgcPiuUkoppZRSSqk99gLWvSJpuDnlsAAAAABJRU5ErkJggg=="/> </defs> <g> <path style="fill:rgb(4.705%,63.137%,36.862%);fill-opacity:0.996078" d="M 7.347656 3.152344 C 6.675781 3.152344 6.042969 3.785156 6.042969 4.457031 L 6.042969 31.847656 C 6.042969 32.480469 6.714844 33.152344 7.347656 33.152344 L 28.21875 33.152344 C 28.851562 33.152344 29.523438 32.480469 29.523438 31.847656 L 29.523438 11.632812 L 21.042969 3.152344 Z M 7.347656 3.152344"/> <g clip-path="url(#clip1)"> <g clip-path="url(#clip2)"> <use xlink:href="#image6"/> </g> </g> <path style="fill:rgb(32.941%,74.117%,55.686%)" d="M 21.042969 3.152344 L 29.523438 11.632812 L 22.347656 11.632812 C 21.714844 11.632812 21.042969 10.960938 21.042969 10.328125 Z M 21.042969 3.152344"/> <path style="fill:rgb(100.000%,100.000%,100.000%)" d="M 14.125 16.0625 L 14.125 17.03125 L 24.78125 17.03125 L 24.78125 16.0625 Z M 14.125 16.0625"/> <path style="fill:rgb(100.000%,100.000%,100.000%)" d="M 14.125 18 L 14.125 18.96875 L 24.78125 18.96875 L 24.78125 18 Z M 14.125 18"/> <path style="fill:rgb(100.000%,100.000%,100.000%)" d="M 14.125 19.9375 L 14.125 20.90625 L 24.78125 20.90625 L 24.78125 19.9375 Z M 14.125 19.9375"/> <path style="fill:rgb(100.000%,100.000%,100.000%)" d="M 14.125 21.875 L 14.125 22.84375 L 24.78125 22.84375 L 24.78125 21.875 Z M 14.125 21.875"/> <path style="fill:rgb(100.000%,100.000%,100.000%)" d="M 14.125 23.8125 L 14.125 24.78125 L 24.78125 24.78125 L 24.78125 23.8125 Z M 14.125 23.8125"/> <path style="fill:rgb(100.000%,100.000%,100.000%)" d="M 14.125 25.75 L 14.125 26.71875 L 24.78125 26.71875 L 24.78125 25.75 Z M 14.125 25.75"/> <path style="fill:rgb(100.000%,100.000%,100.000%)" d="M 11.21875 16.0625 L 13.15625 16.0625 L 13.15625 17.03125 L 11.21875 17.03125 Z M 11.21875 16.0625"/> <path style="fill:rgb(100.000%,100.000%,100.000%)" d="M 11.21875 18 L 13.15625 18 L 13.15625 18.96875 L 11.21875 18.96875 Z M 11.21875 18"/> <path style="fill:rgb(100.000%,100.000%,100.000%)" d="M 11.21875 19.9375 L 13.15625 19.9375 L 13.15625 20.90625 L 11.21875 20.90625 Z M 11.21875 19.9375"/> <path style="fill:rgb(100.000%,100.000%,100.000%)" d="M 11.21875 21.875 L 13.15625 21.875 L 13.15625 22.84375 L 11.21875 22.84375 Z M 11.21875 21.875"/> <path style="fill:rgb(100.000%,100.000%,100.000%)" d="M 11.21875 23.8125 L 13.15625 23.8125 L 13.15625 24.78125 L 11.21875 24.78125 Z M 11.21875 23.8125"/> <path style="fill:rgb(100.000%,100.000%,100.000%)" d="M 11.21875 25.75 L 13.15625 25.75 L 13.15625 26.71875 L 11.21875 26.71875 Z M 11.21875 25.75"/> </g> </svg>

<svg width="36pt" height="36pt" version="1.1" viewBox="0 0 36 36" xmlns="http://www.w3.org/2000/svg"><defs><filter id="a" x="-.192" y="-.192" width="1.384" height="1.384" color-interpolation-filters="sRGB"><feGaussianBlur stdDeviation="0.67843748"/></filter></defs><path d="m7.3477 3.9022c-0.67188 0-1.3047 0.63281-1.3047 1.3047v27.391c0 0.63281 0.67188 1.3047 1.3047 1.3047h20.871c0.63281 0 1.3047-0.67188 1.3047-1.3047v-20.215l-8.4805-8.4805z" opacity=".3"/><path d="m7.3477 3.1523c-0.67188 0-1.3047 0.63281-1.3047 1.3047v27.391c0 0.63281 0.67188 1.3047 1.3047 1.3047h20.871c0.63281 0 1.3047-0.67188 1.3047-1.3047v-20.215l-8.4805-8.4805z" fill="#0ba05d" fill-opacity=".99608"/><path d="m20.668 3.5272 8.4805 8.4805h-7.1758c-0.63281 0-1.3047-0.67187-1.3047-1.3047z" filter="url(#a)" opacity=".2"/><path d="m21.043 3.1523 8.4805 8.4805h-7.1758c-0.63281 0-1.3047-0.67187-1.3047-1.3047z" fill="#53bc8d"/><path d="m14.125 16.062v0.96875h10.656v-0.96875z" fill="#fff"/><path d="m14.125 18v0.96875h10.656v-0.96875z" fill="#fff"/><path d="m14.125 19.938v0.96875h10.656v-0.96875z" fill="#fff"/><path d="m14.125 21.875v0.96875h10.656v-0.96875z" fill="#fff"/><path d="m14.125 23.812v0.96875h10.656v-0.96875z" fill="#fff"/><path d="m14.125 25.75v0.96875h10.656v-0.96875z" fill="#fff"/><path d="m11.219 16.062h1.9375v0.96875h-1.9375z" fill="#fff"/><path d="m11.219 18h1.9375v0.96875h-1.9375z" fill="#fff"/><path d="m11.219 19.938h1.9375v0.96875h-1.9375z" fill="#fff"/><path d="m11.219 21.875h1.9375v0.96875h-1.9375z" fill="#fff"/><path d="m11.219 23.812h1.9375v0.96875h-1.9375z" fill="#fff"/><path d="m11.219 25.75h1.9375v0.96875h-1.9375z" fill="#fff"/></svg>
